X:1
T:Kattloppan
R:Vals
C:Nils Pettersson
O: Billinge, Skåne
M:3/4
L:1/8
K:G
D2 |: "G"G2 (GD) (GB) | d2 B2 d2 | "D7"c2 (cB) .A.c | "G"B2 G2 D2 | 
"G"G2 (GD) (GB) | d2 B2 d2 | "D7"c2 (cB) .A.B |1 G2 z2 D2 :|2 G2 z2 B2 | 
|: "G"d2 (dB) (dg) | "C"e2 (ed) (cB) | "D7"A2 (AB) .c.d | "G"B2 G2 B2 | 
"G"d2 (dB) (dg) | "C"e2 (ed) "Am"(cB) | "D7"A2 (AB) .c.A |1 "G"G2 z2 B2 :|2 G4 z2 |]

